!! midi Test #20
!! Test of ties.
**kern	**kern	**kern	**kern
*M3/4	*M3/4	*M3/4	*M3/4
*F:	*F:	*F:	*F:
[8c	4r	4r	4r
16c]	.	.	.
16c	.	.	.
=1	=1	=1	=1
4d	2.r	2.r	16F
.	.	.	16r
.	.	.	16G
.	.	.	16r
[8c	.	.	16A
.	.	.	16r
16c_	.	.	16F
16c]	.	.	16r
4f	.	.	16G
.	.	.	16r
.	.	.	16A
.	.	.	16r
=2	=2	=2	=2
[8e	2.r	2.r	32.B-
.	.	.	64r
.	.	.	32.c
.	.	.	64r
4.e]	.	.	32.B-
.	.	.	64r
.	.	.	32.A
.	.	.	64r
.	.	.	32.G
.	.	.	64r
.	.	.	32.A
.	.	.	64r
.	.	.	32.G
.	.	.	64r
.	.	.	32.F
.	.	.	64r
8.c	.	.	16..E
.	.	.	64r
.	.	.	16..C
16c	.	.	.
.	.	.	64r
=3	=3	=3	=3
[16d	2.r	2.r	16BB-
16d_	.	.	16r
16d_	.	.	16D
.	.	.	.
16d]	.	.	16r
4c	.	.	[32E
.	.	.	32E]
.	.	.	16r
.	.	.	16G
.	.	.	16r
4g	.	.	[32A
.	.	.	32A]
.	.	.	16r
.	.	.	16B-
.	.	.	16r
=4	=4	=4	=4
[8f	2.r	2.r	16A
.	.	.	16F
8f_	.	.	16G
.	.	.	16A
8f_	.	.	16B-
.	.	.	16c
8f]	.	.	16d
.	.	.	16e
[16c	.	.	[8f
8c]	.	.	.
.	.	.	8f]
16c	.	.	.
=5	=5	=5	=5
[8cc	2.r	2.r	8A
8cc]	.	.	[16G
.	.	.	16G]
4a	.	.	8F
.	.	.	[16G
.	.	.	16G]
[16f	.	.	[32A
.	.	.	16A_
8.f]	.	.	.
.	.	.	32A]
.	.	.	8c
=6	=6	=6	=6
[16e	1r	1r	[32B-
.	.	.	32B-_
8e_	.	.	32B-_
.	.	.	32B-_
.	.	.	32B-_
.	.	.	32B-_
16e]	.	.	32B-_
.	.	.	32B-_
2d	.	.	32B-_
.	.	.	8.B-_
.	.	.	4B-_
.	.	.	32B-]
4r	.	.	4r
8.b-	4r	4r	4G
16b-	.	.	.
=7	=7	=7	=7
4a	2C	2F	2c
4f	.	.	.
4g	4C	4B-	4e
=8	=8	=8	=8
2f	2FF	2A	2c
====	====	====	====
*-	*-	*-	*-
